proprietary/assets/icons/functioneel/bewerken.svg

<svg height="48" width="48" xmlns="http://www.w3.org/2000/svg"><path d="m34 40h-24v-22h8a2 2 0 0 0 2-2v-8h9.957l4-4h-15.129a2 2 0 0 0 -1.414.586l-10.828 10.828a2 2 0 0 0 -.586 1.414v25.172a2 2 0 0 0 2 2h28a2 2 0 0 0 2-2v-17.949l-4 4zm9.875-29.441-4.43-4.43a2 2 0 0 0 -2.828 0l-17.012 17.012a1.62 1.62 0 0 0 -.395.637l-1.184 7.547c-.133.398.25.781.648.648l7.555-1.184a1.62 1.62 0 0 0 .633-.395l17.012-17.008a2 2 0 0 0 0-2.828zm0 0"/></svg>

<svg xmlns="http://www.w3.org/2000/svg" width="48" height="48" fill="rgb(0%,0%,0%)" xmlns:v="https://vecta.io/nano"><path d="M34 40H10V18h8a2 2 0 0 0 2-2V8h9.957l4-4H18.828a2 2 0 0 0-1.414.586L6.586 15.414A2 2 0 0 0 6 16.828V42a2 2 0 0 0 2 2h28a2 2 0 0 0 2-2V24.051l-4 4zm9.875-29.441l-4.43-4.43a2 2 0 0 0-2.828 0L19.605 23.141a1.62 1.62 0 0 0-.395.637l-1.184 7.547c-.133.398.25.781.648.648l7.555-1.184a1.62 1.62 0 0 0 .633-.395l17.012-17.008a2 2 0 0 0 0-2.828zm0 0"/></svg>
